src/assets/emoji/noto-emoji/1F529.svg

<svg enable-background="new 0 0 128 128" viewBox="0 0 128 128" xmlns="http://www.w3.org/2000/svg" xmlns:xlink="http://www.w3.org/1999/xlink"><linearGradient id="b" x1="-70.047" x2="-70.047" y1="-107.41" y2="-51.291" gradientUnits="userSpaceOnUse"><stop stop-color="#eee" offset=".0051299"/><stop stop-color="#EAEAEA" offset=".2817"/><stop stop-color="#ddd" offset=".5766"/><stop stop-color="#C8C8C8" offset=".8789"/><stop stop-color="#BDBDBD" offset=".9998"/></linearGradient><path d="m-19.13-78.72c-0.91-4.33-4.3-20.11-5.87-27.41-0.47-2.21-2.11-3.82-3.99-3.81-5.36 0-15.39-0.05-16.6-0.05h-44.08c-0.61 0-2.56 0.06-4.11 1.79-4.7 5.27-12.54 20.52-13.76 22.07-0.08 0.1-6.27 2.31-9.09 4-1.12 0.67-1.74 2.13-1.9 3.63l-2.46 20.75c-0.64 4.1 1.7 5.76 5.37 5.76h91.51c2.8 0 5.11-0.68 5.11-5.69v-19.79c0-0.43-0.05-0.85-0.13-1.25z" fill="url(#b)"/><defs><path id="c" d="m-19.13-78.78c-0.91-4.32-4.3-20.06-5.87-27.34-0.47-2.21-2.11-3.82-3.99-3.82-5.36 0-15.39-0.06-16.6-0.06h-44.08c-0.61 0-2.56 0.07-4.11 1.8-4.7 5.26-12.54 20.51-13.76 22.05-0.08 0.1-6.27 2.28-9.09 3.96-1.12 0.67-1.74 2.13-1.9 3.62l-2.46 20.76c-0.64 4.09 1.7 5.81 5.37 5.81h91.51c2.8 0 5.11-0.79 5.11-5.8v-19.74c0-0.42-0.05-0.83-0.13-1.24z"/></defs><clipPath><use xlink:href="#c"/></clipPath><g opacity=".2"><path d="m-28.98-107c0.36 0 0.87 0.59 1.05 1.44 1.46 6.78 4.95 23.05 5.86 27.43 0.04 0.2 0.07 0.44 0.07 0.66v19.79c0 2.81-0.49 2.69-2.11 2.69h-91.51c-1.3 0-2.02-0.23-2.25-0.5s-0.3-0.92-0.16-1.77c0.01-0.04 0.01-0.06 0.02-0.09l2.47-20.83c0.08-0.8 0.36-1.28 0.46-1.36 1.87-1.12 5.83-2.66 7.51-3.31 1.46-0.57 1.86-0.72 2.39-1.39 0.5-0.63 1.28-2 2.99-5.03 2.85-5.03 7.61-13.53 10.65-16.93 0.57-0.64 1.22-0.79 1.87-0.79h44.08 9.21 7.4-0.02m0.02-3.01h-16.6-44.08-0.02c-0.63 0-2.55 0.08-4.08 1.79-4.7 5.27-12.54 20.52-13.76 22.07-0.08 0.1-6.27 2.31-9.09 4-1.12 0.67-1.74 2.13-1.9 3.63l-2.46 20.75c-0.64 4.1 1.7 5.76 5.37 5.76h91.51c2.8 0 5.11-0.68 5.11-5.69v-19.79c0-0.42-0.05-0.84-0.13-1.24-0.91-4.33-4.3-20.17-5.87-27.47-0.49-2.21-2.13-3.81-4-3.81z" fill="#424242"/></g><linearGradient id="a" x1="69.43" x2="69.43" y1="-151.5" y2="-95.374" gradientUnits="userSpaceOnUse"><stop stop-color="#616161" offset=".0106"/><stop stop-color="#5D5D5D" offset=".2496"/><stop stop-color="#505050" offset=".5044"/><stop stop-color="#3B3B3B" offset=".7657"/><stop stop-color="#212121" offset="1"/></linearGradient><path d="m120.35-122.93c-0.91-4.33-4.3-20.11-5.86-27.41-0.47-2.21-2.11-3.75-3.99-3.75-5.36 0-15.39 0.01-16.6 0.01h-44.08c-0.61 0-2.56-0.01-4.11 1.73-4.7 5.27-12.54 20.49-13.76 22.03-0.08 0.1-6.27 2.3-9.09 3.99-1.12 0.67-1.74 2.12-1.9 3.62l-2.46 20.8c-0.64 4.1 1.7 5.82 5.37 5.82h91.51c2.8 0 5.1-0.8 5.1-5.81v-19.79c-0.01-0.42-0.05-0.83-0.13-1.24z" fill="url(#a)"/><defs><path id="d" d="m120.35-122.98c-0.91-4.32-4.3-20.06-5.86-27.34-0.47-2.21-2.11-3.74-3.99-3.74-5.36 0-15.39 0.01-16.6 0.01h-44.08c-0.61 0-2.56-0.01-4.11 1.72-4.7 5.26-12.54 20.47-13.76 22.01-0.08 0.1-6.27 2.26-9.09 3.94-1.12 0.67-1.74 2.12-1.9 3.61l-2.47 20.77c-0.64 4.09 1.7 5.8 5.37 5.8h91.51c2.8 0 5.1-0.79 5.1-5.8v-19.74c0-0.42-0.04-0.84-0.12-1.24z"/></defs><clipPath><use xlink:href="#d"/></clipPath><g opacity=".2"><path d="m110.5-151.08c0.36 0 0.87 0.53 1.05 1.38 1.46 6.78 4.95 23.03 5.86 27.4 0.04 0.2 0.06 0.41 0.06 0.63v19.79c0 2.81-0.49 2.81-2.1 2.81h-91.51c-1.3 0-2.02-0.29-2.25-0.56s-0.3-0.95-0.16-1.8l0.02-0.1 2.47-20.84c0.08-0.8 0.36-1.28 0.46-1.36 1.87-1.12 5.83-2.66 7.51-3.31 1.46-0.57 1.86-0.72 2.39-1.39 0.5-0.63 1.28-2 2.99-5.03 2.85-5.03 7.61-13.46 10.65-16.87 0.57-0.64 1.22-0.72 1.87-0.72h44.08c0.75 0 4.84 0 9.12-0.01l7.49-0.02m0-3c-5.36 0-15.39 0.01-16.6 0.01h-44.08-0.02c-0.63 0-2.55 0.01-4.08 1.73-4.7 5.27-12.54 20.49-13.76 22.03-0.08 0.1-6.27 2.3-9.09 3.99-1.12 0.67-1.74 2.12-1.9 3.62l-2.46 20.8c-0.64 4.1 1.7 5.82 5.37 5.82h91.51c2.8 0 5.1-0.8 5.1-5.81v-19.79c0-0.42-0.04-0.84-0.13-1.24-0.91-4.33-4.3-20.11-5.86-27.41-0.49-2.22-2.13-3.75-4-3.75z" fill="#eee"/></g><linearGradient id="e" x1="59.341" x2="87.1" y1="75.309" y2="75.309" gradientTransform="matrix(.7071 -.7071 .7071 .7071 -34.283 69.3)" gradientUnits="userSpaceOnUse"><stop stop-color="#949494" offset="0"/><stop stop-color="#CFCFCF" offset="1"/></linearGradient><path d="m108.85 122.86 13.98-13.98c1.56-1.56 1.56-4.09 0-5.65l-87.37-87.36-19.63 19.62 87.37 87.37c1.56 1.56 4.09 1.56 5.65 0z" fill="url(#e)"/><polygon points="82.33 101.99 109.81 90.14 103.7 84.03 76.22 95.89" fill="#757575"/><polygon points="70.27 89.93 97.75 78.07 91.64 71.97 64.16 83.82" fill="#757575"/><polygon points="58.2 77.87 85.68 66.01 79.58 59.91 52.1 71.76" fill="#757575"/><polygon points="94.39 114.05 121.87 102.2 115.76 96.09 88.28 107.95" fill="#757575"/><path d="m100.35 120.01 2.85 2.85c1.56 1.56 4.09 1.56 5.65 0l11.47-11.47-19.97 8.62z" fill="#757575"/><polygon points="46.14 65.81 73.62 53.95 67.51 47.84 40.03 59.7" fill="#757575"/><polygon points="34.08 53.74 61.56 41.89 55.45 35.78 27.97 47.64" fill="#757575"/><path d="m21.35 62.59 41.24-41.24c1.28-1.28 1.28-3.37 0-4.65l-11.72-11.72c-1.28-1.28-3.37-1.28-4.65 0l-41.24 41.24c-1.28 1.28-1.28 3.37 0 4.65l11.72 11.72c1.28 1.28 3.36 1.28 4.65 0z" fill="#757575"/><path d="M55.08,28.85l7.51-7.51c1.28-1.28,1.28-3.37,0-4.65L50.87,4.98c-1.28-1.28-3.37-1.28-4.65,0 l-7.51,7.51L55.08,28.85z" fill="#BDBDBD"/><path d="m21.35 62.59 7.55-7.55-16.37-16.37-7.55 7.55c-1.28 1.28-1.28 3.37 0 4.65l11.72 11.72c1.28 1.28 3.36 1.28 4.65 0z" fill="#5E5E5E"/><g opacity=".2"><path d="m35.46 20.11 85.25 85.25c0.25 0.25 0.29 0.55 0.29 0.7s-0.04 0.45-0.29 0.7l-13.98 13.98c-0.25 0.25-0.55 0.29-0.7 0.29s-0.45-0.04-0.7-0.29l-85.26-85.25 15.39-15.38m0-4.24-19.63 19.62 87.37 87.37c0.78 0.78 1.8 1.17 2.82 1.17s2.04-0.39 2.82-1.17l13.98-13.98c1.56-1.56 1.56-4.09 0-5.65l-87.36-87.36z" fill="#424242"/></g><rect transform="matrix(-.7071 .7071 -.7071 -.7071 81.582 33.733)" x="15.29" y="22.19" width="37.03" height="23.14" fill="#848484"/><g opacity=".2"><path d="m48.55 7.01c0.08 0 0.15 0.03 0.2 0.08l11.72 11.72c0.06 0.06 0.08 0.12 0.08 0.2s-0.03 0.15-0.08 0.2l-41.24 41.26c-0.06 0.06-0.12 0.08-0.2 0.08s-0.15-0.03-0.2-0.08l-11.73-11.72c-0.06-0.06-0.08-0.12-0.08-0.2s0.03-0.15 0.08-0.2l41.24-41.25c0.06-0.06 0.13-0.09 0.21-0.09m0-3c-0.84 0-1.68 0.32-2.33 0.96l-41.24 41.25c-1.28 1.28-1.28 3.37 0 4.65l11.72 11.72c0.64 0.64 1.48 0.96 2.33 0.96s1.68-0.32 2.33-0.96l41.24-41.24c1.28-1.28 1.28-3.37 0-4.65l-11.73-11.72c-0.64-0.64-1.48-0.97-2.32-0.97z" fill="#424242"/></g><path d="m57.41 98.65 41.24-41.25c1.28-1.28 1.28-3.37 0-4.65l-11.72-11.71c-1.28-1.28-3.37-1.28-4.65 0l-41.24 41.24c-1.28 1.28-1.28 3.37 0 4.65l11.72 11.72c1.28 1.28 3.36 1.28 4.65 0z" fill="#757575"/><path d="m91.14 64.91 7.51-7.51c1.28-1.28 1.28-3.37 0-4.65l-11.72-11.71c-1.28-1.28-3.37-1.28-4.65 0l-7.51 7.51 16.37 16.36z" fill="#BDBDBD"/><path d="m57.41 98.65 7.55-7.55-16.37-16.37-7.55 7.55c-1.28 1.28-1.28 3.37 0 4.65l11.72 11.72c1.28 1.28 3.36 1.28 4.65 0z" fill="#5E5E5E"/><rect transform="matrix(-.7071 .7071 -.7071 -.7071 168.64 69.792)" x="51.35" y="58.25" width="37.03" height="23.14" fill="#848484"/><g opacity=".2"><path d="m84.61 43.07c0.08 0 0.15 0.03 0.2 0.08l11.72 11.72c0.06 0.06 0.08 0.12 0.08 0.2s-0.03 0.15-0.08 0.2l-41.25 41.25c-0.06 0.06-0.12 0.08-0.2 0.08s-0.15-0.03-0.2-0.08l-11.72-11.71c-0.06-0.06-0.08-0.12-0.08-0.2s0.03-0.15 0.08-0.2l41.24-41.25c0.06-0.06 0.13-0.09 0.21-0.09m0-3c-0.84 0-1.68 0.32-2.33 0.96l-41.24 41.25c-1.28 1.28-1.28 3.37 0 4.65l11.72 11.72c0.64 0.64 1.48 0.96 2.33 0.96s1.68-0.32 2.33-0.96l41.23-41.25c1.28-1.28 1.28-3.37 0-4.65l-11.72-11.71c-0.64-0.65-1.48-0.97-2.32-0.97z" fill="#424242"/></g></svg>

<?xml version="1.0" encoding="utf-8"?>
<!-- Generator: Adobe Illustrator 24.0.3, SVG Export Plug-In . SVG Version: 6.00 Build 0)  -->
<svg version="1.1" id="Layer_1" xmlns="http://www.w3.org/2000/svg" xmlns:xlink="http://www.w3.org/1999/xlink" x="0px" y="0px"
	 viewBox="0 0 128 128" style="enable-background:new 0 0 128 128;" xml:space="preserve">
<linearGradient id="SVGID_1_" gradientUnits="userSpaceOnUse" x1="-582.0211" y1="909.6896" x2="-554.2598" y2="909.6896" gradientTransform="matrix(0.7071 -0.7071 0.7071 0.7071 -170.7744 -974.2086)">
	<stop  offset="0" style="stop-color:#949494"/>
	<stop  offset="1" style="stop-color:#CFCFCF"/>
</linearGradient>
<path style="fill:url(#SVGID_1_);" d="M108.8,122.9l14-14c1.6-1.6,1.6-4.1,0-5.7L35.5,15.9L15.8,35.5l87.4,87.4
	C104.8,124.4,107.3,124.4,108.8,122.9z"/>
<polygon style="fill:#757575;" points="82.3,102 109.8,90.1 103.7,84 76.2,95.9 "/>
<polygon style="fill:#757575;" points="70.3,89.9 97.8,78.1 91.6,72 64.2,83.8 "/>
<polygon style="fill:#757575;" points="58.2,77.9 85.7,66 79.6,59.9 52.1,71.8 "/>
<polygon style="fill:#757575;" points="94.4,114 121.9,102.2 115.8,96.1 88.3,107.9 "/>
<path style="fill:#757575;" d="M100.3,120l2.8,2.8c1.6,1.6,4.1,1.6,5.7,0l11.5-11.5L100.3,120z"/>
<polygon style="fill:#757575;" points="46.1,65.8 73.6,53.9 67.5,47.8 40,59.7 "/>
<polygon style="fill:#757575;" points="34.1,53.7 61.6,41.9 55.5,35.8 28,47.6 "/>
<path style="fill:#757575;" d="M21.4,62.6l41.2-41.2c1.3-1.3,1.3-3.4,0-4.6L50.9,5c-1.3-1.3-3.4-1.3-4.7,0L5,46.2
	c-1.3,1.3-1.3,3.4,0,4.7l11.7,11.7C18,63.9,20.1,63.9,21.4,62.6z"/>
<path style="fill:#BDBDBD;" d="M55.1,28.8l7.5-7.5c1.3-1.3,1.3-3.4,0-4.6L50.9,5c-1.3-1.3-3.4-1.3-4.7,0l-7.5,7.5L55.1,28.8z"/>
<path style="fill:#5E5E5E;" d="M21.4,62.6l7.6-7.5L12.5,38.7L5,46.2c-1.3,1.3-1.3,3.4,0,4.7l11.7,11.7C18,63.9,20.1,63.9,21.4,62.6z
	"/>
<g style="opacity:0.2;">
	<path style="fill:#424242;" d="M35.5,20.1l85.2,85.2c0.2,0.2,0.3,0.6,0.3,0.7s0,0.4-0.3,0.7l-14,14c-0.2,0.2-0.6,0.3-0.7,0.3
		s-0.4,0-0.7-0.3L20.1,35.5L35.5,20.1 M35.5,15.9L15.8,35.5l87.4,87.4c0.8,0.8,1.8,1.2,2.8,1.2s2-0.4,2.8-1.2l14-14
		c1.6-1.6,1.6-4.1,0-5.7C122.8,103.2,35.5,15.9,35.5,15.9z"/>
</g>
<rect x="15.29" y="22.21" transform="matrix(0.7071 -0.7071 0.7071 0.7071 -13.9741 33.7817)" style="fill:#848484;" width="37" height="23.1"/>
<g style="opacity:0.2;">
	<path style="fill:#424242;" d="M48.5,7c0.1,0,0.2,0,0.2,0.1l11.7,11.7c0.1,0.1,0.1,0.1,0.1,0.2s0,0.1-0.1,0.2L19.2,60.5
		c-0.1,0.1-0.1,0.1-0.2,0.1s-0.1,0-0.2-0.1L7.1,48.7C7,48.7,7,48.6,7,48.5s0-0.2,0.1-0.2L48.3,7.1C48.4,7,48.5,7,48.5,7 M48.5,4
		c-0.8,0-1.7,0.3-2.3,1L5,46.2c-1.3,1.3-1.3,3.4,0,4.7l11.7,11.7c0.6,0.6,1.5,1,2.3,1s1.7-0.3,2.3-1l41.2-41.2
		c1.3-1.3,1.3-3.4,0-4.6L50.9,5C50.2,4.3,49.4,4,48.5,4z"/>
</g>
<path style="fill:#757575;" d="M57.4,98.6l41.2-41.2c1.3-1.3,1.3-3.4,0-4.7L86.9,41c-1.3-1.3-3.4-1.3-4.7,0L41,82.3
	c-1.3,1.3-1.3,3.4,0,4.7l11.7,11.7C54,99.9,56.1,99.9,57.4,98.6z"/>
<path style="fill:#BDBDBD;" d="M91.1,64.9l7.5-7.5c1.3-1.3,1.3-3.4,0-4.7L86.9,41c-1.3-1.3-3.4-1.3-4.7,0l-7.5,7.5L91.1,64.9z"/>
<path style="fill:#5E5E5E;" d="M57.4,98.6l7.5-7.6L48.6,74.7L41,82.3c-1.3,1.3-1.3,3.4,0,4.7l11.7,11.7C54,99.9,56.1,99.9,57.4,98.6
	z"/>
<rect x="51.41" y="58.27" transform="matrix(0.7071 -0.7071 0.7071 0.7071 -28.8947 69.8826)" style="fill:#848484;" width="37" height="23.1"/>
<g style="opacity:0.2;">
	<path style="fill:#424242;" d="M84.6,43.1c0.1,0,0.2,0,0.2,0.1l11.7,11.7c0.1,0.1,0.1,0.1,0.1,0.2s0,0.2-0.1,0.2L55.3,96.5
		c-0.1,0.1-0.1,0.1-0.2,0.1s-0.2,0-0.2-0.1L43.2,84.8c-0.1-0.1-0.1-0.1-0.1-0.2s0-0.2,0.1-0.2l41.2-41.2
		C84.5,43.1,84.5,43.1,84.6,43.1 M84.6,40.1c-0.8,0-1.7,0.3-2.3,1L41,82.3c-1.3,1.3-1.3,3.4,0,4.7l11.7,11.7c0.6,0.6,1.5,1,2.3,1
		s1.7-0.3,2.3-1l41.2-41.2c1.3-1.3,1.3-3.4,0-4.7L86.9,41C86.3,40.4,85.4,40.1,84.6,40.1z"/>
</g>
</svg>
